Themes/OneUI/assets/svg/sec_ic_settings_coverscreen.svg

<?xml version="1.0" encoding="UTF-8" standalone="no"?>
<svg
   width="28.032007"
   height="28.032013"
   viewBox="0 0 28.032007 28.032013"
   fill="none"
   version="1.1"
   id="svg1955"
   sodipodi:docname="sec_ic_settings_coverscreen.svg"
   xmlns:inkscape="http://www.inkscape.org/namespaces/inkscape"
   xmlns:sodipodi="http://sodipodi.sourceforge.net/DTD/sodipodi-0.dtd"
   xmlns="http://www.w3.org/2000/svg"
   xmlns:svg="http://www.w3.org/2000/svg">
  <sodipodi:namedview
     id="namedview1957"
     pagecolor="#ffffff"
     bordercolor="#666666"
     borderopacity="1.0"
     inkscape:showpageshadow="2"
     inkscape:pageopacity="0.0"
     inkscape:pagecheckerboard="0"
     inkscape:deskcolor="#d1d1d1" />
  <g
     clip-path="url(#clip0_1_1423)"
     id="g1948"
     transform="translate(0.0160063,0.01611318)">
    <path
       d="m 27.7,9.79989 c -0.3,-2.6 -1.3,-5 -2.9,-6.7 -1.7,-1.6 -4.1,-2.500003 -6.7,-2.900003 -2.4,-0.3 -4.1,-0.200000279 -4.1,-0.200000279 0,0 -1.7,-0.099999721 -4.20001,0.200000279 -2.6,0.3 -5,1.300003 -6.7,2.900003 -1.6,1.8 -2.499996,4.1 -2.799996,6.7 -0.4,2.50001 -0.3000004671,4.20001 -0.3000004671,4.20001 0,0 -0.0999995329,1.7 0.2000004671,4.2 0.3,2.6 1.299996,5 2.899996,6.7 1.7,1.6 4.1,2.5 6.7,2.9 2.50001,0.3 4.20001,0.2 4.20001,0.2 0,0 1.7,0.1 4.2,-0.2 2.6,-0.3 5,-1.3 6.7,-2.9 1.6,-1.7 2.5,-4.1 2.9,-6.7 0.3,-2.5 0.2,-4.2 0.2,-4.2 0,0 0.1,-1.7 -0.3,-4.20001 z m -6.9,9.90001 c 0,1.3 -1.1,2.3 -2.4,2.3 H 9.59999 c -1.3,0 -2.4,-1 -2.4,-2.3 V 8.29989 c 0,-1.3 1.1,-2.3 2.4,-2.3 H 18.4 c 1.3,0 2.4,1 2.4,2.3 z"
       fill="#2badbd"
       id="path1942" />
    <path
       d="M 15.4,16.8999 H 9.7 c -0.4,0 -0.7,0.3 -0.7,0.7 v 1.9 c 0,0.4 0.3,0.7 0.7,0.7 h 5.7 c 0.4,0 0.7,-0.3 0.7,-0.7 v -1.9 c 0.1,-0.4 -0.3,-0.7 -0.7,-0.7 z"
       fill="#2badbd"
       id="path1944" />
    <path
       d="M 18.4,6 H 9.6 C 8.3,6 7.2,7 7.2,8.3 V 19.7 C 7.2,21 8.3,22 9.6,22 h 8.8 c 1.3,0 2.4,-1 2.4,-2.3 V 8.3 C 20.8,7 19.7,6 18.4,6 Z m -2.2,13.5 c 0,0.4 -0.3,0.7 -0.7,0.7 H 9.7 C 9.3,20.2 9,19.9 9,19.5 v -1.9 c 0,-0.4 0.3,-0.7 0.7,-0.7 h 5.7 c 0.4,0 0.7,0.3 0.7,0.7 v 1.9 z"
       fill="#ffffff"
       id="path1946" />
  </g>
  <defs
     id="defs1953">
    <clipPath
       id="clip0_1_1423">
      <rect
         width="28"
         height="28"
         fill="#ffffff"
         id="rect1950"
         x="0"
         y="0" />
    </clipPath>
  </defs>
</svg>

<svg width="28" height="28" viewBox="0 0 28 28" fill="none" xmlns="http://www.w3.org/2000/svg">
<g clip-path="url(#clip0_1_1423)">
<path d="M27.7 9.79989C27.4 7.19989 26.4 4.79989 24.8 3.09989C23.1 1.49989 20.7 0.599887 18.1 0.199887C15.7 -0.100113 14 -0.000113279 14 -0.000113279C14 -0.000113279 12.3 -0.100113 9.79999 0.199887C7.19999 0.499887 4.79999 1.49989 3.09999 3.09989C1.49999 4.89989 0.599994 7.19989 0.299994 9.79989C-0.100006 12.2999 -6.4671e-06 13.9999 -6.4671e-06 13.9999C-6.4671e-06 13.9999 -0.100006 15.6999 0.199994 18.1999C0.499994 20.7999 1.49999 23.1999 3.09999 24.8999C4.79999 26.4999 7.19999 27.3999 9.79999 27.7999C12.3 28.0999 14 27.9999 14 27.9999C14 27.9999 15.7 28.0999 18.2 27.7999C20.8 27.4999 23.2 26.4999 24.9 24.8999C26.5 23.1999 27.4 20.7999 27.8 18.1999C28.1 15.6999 28 13.9999 28 13.9999C28 13.9999 28.1 12.2999 27.7 9.79989ZM20.8 19.6999C20.8 20.9999 19.7 21.9999 18.4 21.9999H9.59999C8.29999 21.9999 7.19999 20.9999 7.19999 19.6999V8.29989C7.19999 6.99989 8.29999 5.99989 9.59999 5.99989H18.4C19.7 5.99989 20.8 6.99989 20.8 8.29989V19.6999Z" fill="#2BADBD"/>
<path d="M15.4 16.8999H9.7C9.3 16.8999 9 17.1999 9 17.5999V19.4999C9 19.8999 9.3 20.1999 9.7 20.1999H15.4C15.8 20.1999 16.1 19.8999 16.1 19.4999V17.5999C16.2 17.1999 15.8 16.8999 15.4 16.8999Z" fill="#2BADBD"/>
<path d="M18.4 6H9.6C8.3 6 7.2 7 7.2 8.3V19.7C7.2 21 8.3 22 9.6 22H18.4C19.7 22 20.8 21 20.8 19.7V8.3C20.8 7 19.7 6 18.4 6ZM16.2 19.5C16.2 19.9 15.9 20.2 15.5 20.2H9.7C9.3 20.2 9 19.9 9 19.5V17.6C9 17.2 9.3 16.9 9.7 16.9H15.4C15.8 16.9 16.1 17.2 16.1 17.6V19.5H16.2Z" fill="white"/>
</g>
<defs>
<clipPath id="clip0_1_1423">
<rect width="28" height="28" fill="white"/>
</clipPath>
</defs>
</svg>
